!!!COM: Gaspar van Weerbeke
!!!CDT: ~1450-~1517
!!!OPR: In honorem sancti spiritus
!!!OTL: Beata gens
!!!OMV: 3
!!!AGN: Motet
!!!SCT: Gas0303c
!!!SCA: Gas0303c
!!!voices: 4
**kern	**text	**kern	**text	**kern	**text	**kern	**text
*part4	*part4	*part3	*part3	*part2	*part2	*part1	*part1
*staff4	*staff4	*staff3	*staff3	*staff2	*staff2	*staff1	*staff1
*I"Bassus	*	*I"Tenor	*	*I"Altus	*	*I"Superius	*
*I'B	*	*I'T	*	*I'A	*	*I'S	*
*clefF4	*	*clefGv2	*	*clefGv2	*	*clefG2	*
*k[]	*	*k[]	*	*k[]	*	*k[]	*
*M2/2	*	*M2/2	*	*M2/2	*	*M2/2	*
*met(C|)	*	*met(C|)	*	*met(C|)	*	*met(C|)	*
=1	=1	=1	=1	=1	=1	=1	=1
2.G	Be-	1G	Be-	1r	.	1r	.
8FL	.	.	.	.	.	.	.
8EJ	.	.	.	.	.	.	.
=2	=2	=2	=2	=2	=2	=2	=2
2F	-a-	2A	-a-	1r	.	1r	.
2G	.	2B	.	.	.	.	.
=3	=3	=3	=3	=3	=3	=3	=3
2E	.	2G	.	1r	.	1g	Be-
2C	.	[2c	.	.	.	.	.
=4	=4	=4	=4	=4	=4	=4	=4
*lig	*	*	*	*	*	*	*
2F	.	2c]	.	1r	.	2a	-a-
2G	.	2B	.	.	.	2b	.
*Xlig	*	*	*	*	*	*	*
=5	=5	=5	=5	=5	=5	=5	=5
*lig	*	*lig	*	*	*	*	*
2E	.	1c	-ta	1r	.	2g	.
2A	.	.	.	.	.	[2cc	.
*Xlig	*	*	*	*	*	*	*
=6	=6	=6	=6	=6	=6	=6	=6
1G	-ta	1d	.	1g	Be-	2cc]	.
.	.	.	.	.	.	2b	.
*	*	*Xlig	*	*	*	*	*
!!LO:LB:g=original
=7	=7	=7	=7	=7	=7	=7	=7
*	*	*	*	*	*	*lig	*
1C	gens,	1c	gens,	2.e	-a-	1cc	-ta
.	.	.	.	8dL	.	.	.
.	.	.	.	8cJ	.	.	.
=8	=8	=8	=8	=8	=8	=8	=8
1GG	.	2r	.	4B	.	1dd	.
.	.	.	.	4c	.	.	.
.	.	2B	cu-	2d	.	.	.
*	*	*	*	*	*	*Xlig	*
=9	=9	=9	=9	=9	=9	=9	=9
*	*	*lig	*	*	*	*	*
1r	.	2A	-ius	2e	.	1cc	gens,
.	.	2F	.	2f	-ta	.	.
*	*	*Xlig	*	*	*	*	*
=10	=10	=10	=10	=10	=10	=10	=10
1GG	cu-	1G	est	2.d	gens,	2r	.
.	.	.	.	.	.	2b	cu-
.	.	.	.	4e	.	.	.
=11	=11	=11	=11	=11	=11	=11	=11
2D	-ius	2F	do-	2f	.	2.a	-ius
2F	.	2A	.	2c	.	.	.
.	.	.	.	.	.	4f	.
=12	=12	=12	=12	=12	=12	=12	=12
*	*	*lig	*	*	*	*	*
1E	est	2B	.	2r	.	1g	est
.	.	2c	.	2e	cu-	.	.
*	*	*Xlig	*	*	*	*	*
=13	=13	=13	=13	=13	=13	=13	=13
2.D	do-	2.d	.	2A	-ius	4.f	do-
.	.	.	.	.	.	8g	.
.	.	.	.	4.F	est	2a	.
4E	.	8cL	.	.	.	.	.
.	.	8BJ	.	8G	.	.	.
!!LO:PB:g=original
=14	=14	=14	=14	=14	=14	=14	=14
4F	.	4A	.	4A	.	4r	.
4E	.	4B	.	4G	.	4g	.
4F	.	4A	.	4F	.	4a	.
4D	.	[4d	-mi-	4A	.	[4f	-mi-
=15	=15	=15	=15	=15	=15	=15	=15
4r	.	4d]	.	8FL	.	4f]	.
.	.	.	.	8G	.	.	.
4D	.	8c#jL	.	8A	.	8eL	.
.	.	8BJ	.	8BJ	.	8dJ	.
2AA	-mi-	2c#j	.	2A	.	2e	.
=16	=16	=16	=16	=16	=16	=16	=16
2BB-j	-nus	1d	-nus	1r	.	2d	-nus
[2D	de-	.	.	.	.	2r	.
=17	=17	=17	=17	=17	=17	=17	=17
4D]	.	2r	.	1r	.	1r	.
4E	.	.	.	.	.	.	.
2F	.	2c	de-	.	.	.	.
=18	=18	=18	=18	=18	=18	=18	=18
2G	-us	2B	-us	1r	.	1r	.
4A	e-	4c	e-	.	.	.	.
[4B-j	-o-	[4d	-o-	.	.	.	.
=19	=19	=19	=19	=19	=19	=19	=19
4B-]	.	4d]	.	1r	.	1r	.
8AL	.	8cL	.	.	.	.	.
8GJ	.	8B-jJ	.	.	.	.	.
2A	.	4c	.	.	.	.	.
.	.	[4A	.	.	.	.	.
=20	=20	=20	=20	=20	=20	=20	=20
4F	.	4A]	.	1r	.	1r	.
2G	.	2B-j	.	.	.	.	.
8FL	.	8AL	.	.	.	.	.
8EJ	.	8GJ	.	.	.	.	.
!!LO:LB:g=original
=21	=21	=21	=21	=21	=21	=21	=21
2F	.	4A	.	1r	.	1r	.
.	.	2F	.	.	.	.	.
4D	.	.	.	.	.	.	.
[4E	.	[4G	.	.	.	.	.
=22	=22	=22	=22	=22	=22	=22	=22
4E]	.	4G]	.	1r	.	1r	.
8DL	.	8FL	.	.	.	.	.
8CJ	.	8EJ	.	.	.	.	.
2D	.	4F	.	.	.	.	.
.	.	8DL	.	.	.	.	.
.	.	8EJ	.	.	.	.	.
=23	=23	=23	=23	=23	=23	=23	=23
4BB-i	.	8FL	.	1r	.	1r	.
.	.	8GJ	.	.	.	.	.
2C	.	2A	.	.	.	.	.
8BB-iL	.	[4B-i	.	.	.	.	.
8AAJ	.	.	.	.	.	.	.
=24	=24	=24	=24	=24	=24	=24	=24
4GG	.	4B-]	.	2r	.	1r	.
4BB-i	.	2G	.	.	.	.	.
2AA	.	.	.	2c	po-	.	.
.	.	4F#i	.	.	.	.	.
=25	=25	=25	=25	=25	=25	=25	=25
1GG	-rum,	1G	-rum,	4B-j	.	1r	.
.	.	.	.	4B-j	-pu-	.	.
.	.	.	.	4.d	-lus,	.	.
.	.	.	.	8c	.	.	.
=26	=26	=26	=26	=26	=26	=26	=26
1r	.	1r	.	2A	.	2cc	po-
.	.	.	.	2G	.	4b-j	.
.	.	.	.	.	.	4b-j	-pu-
=27	=27	=27	=27	=27	=27	=27	=27
1r	.	1r	.	4r	.	4.dd	-lus,
.	.	.	.	2g	quem	.	.
.	.	.	.	.	.	8cc	.
.	.	.	.	.	.	2a	.
.	.	.	.	4f	e-	.	.
!!LO:LB:g=original
=28	=28	=28	=28	=28	=28	=28	=28
1r	.	1r	.	4e	-le-	4g	.
.	.	.	.	2g	.	2b-j	quem
.	.	.	.	8fL	.	8aL	e-
.	.	.	.	8eJ	.	8gJ	.
=29	=29	=29	=29	=29	=29	=29	=29
1r	.	1r	.	2f	.	4a	-le-
.	.	.	.	.	.	2f	.
.	.	.	.	4d	.	.	.
.	.	.	.	[4e	.	[4g	.
=30	=30	=30	=30	=30	=30	=30	=30
1r	.	1r	.	4e]	.	4g]	.
.	.	.	.	8dL	.	8fL	.
.	.	.	.	8cJ	.	8eJ	.
.	.	.	.	2d	.	4f	.
.	.	.	.	.	.	8dL	.
.	.	.	.	.	.	8eJ	.
=31	=31	=31	=31	=31	=31	=31	=31
1r	.	1r	.	4B-i	.	8fL	.
.	.	.	.	.	.	8gJ	.
.	.	.	.	2c	.	2a	.
.	.	.	.	8B-iL	.	[4b-i	.
.	.	.	.	8AJ	.	.	.
=32	=32	=32	=32	=32	=32	=32	=32
1r	.	1r	.	4G	.	4b-]	.
.	.	.	.	4B-i	.	2g	.
.	.	.	.	2A	.	.	.
.	.	.	.	.	.	4f#i	.
=33	=33	=33	=33	=33	=33	=33	=33
2r	.	2r	.	2G	-git	2g	-git
2GG	in	2G	in	2d	in	4r	.
.	.	.	.	.	.	4g	in
=34	=34	=34	=34	=34	=34	=34	=34
4D	he-	4F	he-	4d	he-	4a	he-
2D	-re-	2F	-re-	2d	-re-	2a	-re-
4GG	-di-	4G	-di-	4d	-di-	4g	-di-
!!LO:LB:g=original
=35	=35	=35	=35	=35	=35	=35	=35
2D	-ta-	2F	-ta-	4f	-ta-	2a	-ta-
.	.	.	.	4d	.	.	.
2E	.	2G	.	4B	.	2g	.
.	.	.	.	4c#j	.	.	.
=36	=36	=36	=36	=36	=36	=36	=36
2D	-tem	2A	-tem	2d	-tem	2f	-tem
4G	si-	4B-i	si-	2r	.	4g	si-
[4F	.	[4c	.	.	.	[4a	.
=37	=37	=37	=37	=37	=37	=37	=37
2F]	.	8cL]	.	2f	si-	8aL]	.
.	.	8B-i	.	.	.	8b-iJ	.
.	.	8A	.	.	.	2cc	.
.	.	8GJ	.	.	.	.	.
2C	.	2c	.	2e	.	.	.
.	.	.	.	.	.	8b-iL	.
.	.	.	.	.	.	8aJ	.
=38	=38	=38	=38	=38	=38	=38	=38
4G	.	8dL	.	4d	.	4b-i	.
.	.	8c	.	.	.	.	.
4F	.	8B-i	.	4f	.	2a	.
.	.	8AJ	.	.	.	.	.
2G	.	2B-i	.	2d	-bi.	.	.
.	.	.	.	.	.	4g	.
=39	=39	=39	=39	=39	=39	=39	=39
2D	-bi.	2A	-bi.	2d	Ver-	2a	-bi.
2r	.	2r	.	4d	-bo	2r	.
.	.	.	.	[4B	do-	.	.
=40	=40	=40	=40	=40	=40	=40	=40
1r	.	1r	.	4B]	.	2dd	Ver-
.	.	.	.	4G	-mi-	.	.
.	.	.	.	4G	-ni	4dd	-bo
.	.	.	.	[4g	cae-	[4b	do-
!!LO:PB:g=original
=41	=41	=41	=41	=41	=41	=41	=41
1r	.	1r	.	8gL]	.	4b]	.
.	.	.	.	8f	.	.	.
.	.	.	.	8e	.	4g	-mi-
.	.	.	.	8dJ	.	.	.
.	.	.	.	4.e	.	2g	-ni
.	.	.	.	8d	.	.	.
=42	=42	=42	=42	=42	=42	=42	=42
1r	.	1r	.	8cL	.	4r	.
.	.	.	.	8BJ	.	.	.
.	.	.	.	2A	-li	4.cc	cae-
.	.	.	.	.	.	8bL	.
.	.	.	.	4e	fir-	8a	.
.	.	.	.	.	.	8gJ	.
=43	=43	=43	=43	=43	=43	=43	=43
1r	.	1r	.	4.f	-ma-	4.a	-li
.	.	.	.	8e	.	8g	.
.	.	.	.	8dL	.	8fL	.
.	.	.	.	8c	.	8e	.
.	.	.	.	8B	.	8d	.
.	.	.	.	8AJ	.	8cJ	.
=44	=44	=44	=44	=44	=44	=44	=44
1r	.	1r	.	8GL	.	4.g	fir-
.	.	.	.	8FJ	.	.	.
.	.	.	.	4E	.	.	.
.	.	.	.	.	.	8e	.
.	.	.	.	8DL	.	4f	.
.	.	.	.	8E	.	.	.
.	.	.	.	8F	.	[4a	-ma-
.	.	.	.	8GJ	.	.	.
=45	=45	=45	=45	=45	=45	=45	=45
1r	.	1r	.	8AL	.	4a]	.
.	.	.	.	8DJ	.	.	.
.	.	.	.	2d	.	8gL	.
.	.	.	.	.	.	8fJ	.
.	.	.	.	.	.	2e	-ti
.	.	.	.	4c#i	-ti	.	.
=46	=46	=46	=46	=46	=46	=46	=46
2D	et	2r	.	2d	sunt,	1d	sunt,
4.BB	spi-	2d	et	2r	.	.	.
8C	.	.	.	.	.	.	.
!!LO:LB:g=original
=47	=47	=47	=47	=47	=47	=47	=47
4D	.	4.B	spi-	1r	.	1r	.
4.GG	-ri-	.	.	.	.	.	.
.	.	8c	.	.	.	.	.
.	.	4d	.	.	.	.	.
8AA	.	.	.	.	.	.	.
4BB	.	[4G	-ri-	.	.	.	.
=48	=48	=48	=48	=48	=48	=48	=48
2C	-tu	4G]	.	1r	.	1r	.
.	.	4.A	-tu	.	.	.	.
4.D	o-	.	.	.	.	.	.
.	.	8GL	.	.	.	.	.
.	.	8F	.	.	.	.	.
8E	.	8EJ	.	.	.	.	.
=49	=49	=49	=49	=49	=49	=49	=49
8FL	.	4.D	o-	1r	.	1r	.
8GJ	.	.	.	.	.	.	.
2A	.	.	.	.	.	.	.
.	.	8E	.	.	.	.	.
.	.	8FL	.	.	.	.	.
.	.	8G	.	.	.	.	.
[4F	.	8A	.	.	.	.	.
.	.	8BJ	.	.	.	.	.
=50	=50	=50	=50	=50	=50	=50	=50
4F]	.	2c	.	1r	.	1r	.
4E	-ris	.	.	.	.	.	.
4.D	e-	4B	.	.	.	.	.
.	.	4A	-ris	.	.	.	.
8C	.	.	.	.	.	.	.
=51	=51	=51	=51	=51	=51	=51	=51
8BBL	.	4.d	e-	1r	.	1r	.
8AAJ	.	.	.	.	.	.	.
2GG	.	.	.	.	.	.	.
.	.	8cL	.	.	.	.	.
.	.	8B	.	.	.	.	.
.	.	8AJ	.	.	.	.	.
[4D	.	[4B	.	.	.	.	.
=52	=52	=52	=52	=52	=52	=52	=52
4D]	.	4B]	.	1r	.	1r	.
4C	.	2A	.	.	.	.	.
!ONB: 2nd version in the edition: 2BB-i	!	!	!	!	!	!	!
2BB	.	.	.	.	.	.	.
!	!	!ONB: 2nd version in the edition: 4G	!	!	!	!	!
.	.	4G#i	.	.	.	.	.
!!LO:LB:g=original
=53	=53	=53	=53	=53	=53	=53	=53
1AA	-ius	1A	-ius	1r	.	2r	.
.	.	.	.	.	.	2a	om-
=54	=54	=54	=54	=54	=54	=54	=54
1r	.	1r	.	2c	om-	4cc	-nis
.	.	.	.	.	.	4cc	vir-
.	.	.	.	4f	-nis	4a	-tus
.	.	.	.	4f	vir-	4a	e-
=55	=55	=55	=55	=55	=55	=55	=55
1r	.	2r	.	4d	-tus	4.dd	-o-
.	.	.	.	4d	e-	.	.
.	.	.	.	.	.	8ccL	.
.	.	2G	om-	4.g	-o-	8b	.
.	.	.	.	.	.	8aJ	.
.	.	.	.	.	.	[4g	.
.	.	.	.	8f	.	.	.
=56	=56	=56	=56	=56	=56	=56	=56
1r	.	4c	-nis	8eL	.	4g]	.
.	.	.	.	8dJ	.	.	.
.	.	4c	vir-	4c	.	4.a	.
.	.	4A	-tus	2e	.	.	.
.	.	.	.	.	.	8gL	.
.	.	4A	e-	.	.	8f	.
.	.	.	.	.	.	8eJ	.
=57	=57	=57	=57	=57	=57	=57	=57
2D	om-	4.d	-o-	2A	.	4f	.
.	.	.	.	.	.	2d	.
.	.	8cL	.	.	.	.	.
4G	-nis	8B	.	4B	.	.	.
.	.	8AJ	.	.	.	.	.
4G	vir-	4B	.	4G	.	[4g	.
=58	=58	=58	=58	=58	=58	=58	=58
*	*	*lig	*	*	*	*	*
4E	-tus	2G	.	2B	.	8gL]	.
.	.	.	.	.	.	8aJ	.
4G	e-	.	.	.	.	4b	.
2F	-o-	2A	.	4A	.	4cc	.
.	.	.	.	4c	.	4a	.
*	*	*Xlig	*	*	*	*	*
!!LO:LB:g=original
=59	=59	=59	=59	=59	=59	=59	=59
*	*	*	*edit	*	*	*	*
4.G	.	2G	-rum,	8BL	.	2b	.
.	.	.	.	8cJ	.	.	.
.	.	.	.	4d	.	.	.
8FL	.	.	.	.	.	.	.
*	*	*	*	*	*	*	*edit
8E	.	4.c	e-	2e	.	4g	-rum,
8DJ	.	.	.	.	.	.	.
*	*edit	*	*	*	*	*	*
4C	-rum,	.	.	.	.	[4a	e-
.	.	8B	.	.	.	.	.
=60	=60	=60	=60	=60	=60	=60	=60
*	*	*	*	*	*edit	*	*
2F	e-	2A	.	2c	-rum,	8aL]	.
.	.	.	.	.	.	8b	.
.	.	.	.	.	.	8cc	.
.	.	.	.	.	.	8ddJ	.
4G	.	4G	.	4r	.	4b	.
[4F	-o-	4A	.	[4f	e-	[4a	-o-
=61	=61	=61	=61	=61	=61	=61	=61
8FL]	.	4.c	-o-	8fL]	.	8aL]	.
8EJ	.	.	.	8gJ	.	8b	.
4F	.	.	.	4a	.	8cc	.
.	.	8B	.	.	.	8ddJ	.
4G	.	4G	.	4d	.	4b	.
[4F	.	4A	.	[4f	.	[4a	.
=62	=62	=62	=62	=62	=62	=62	=62
8FL]	.	2c	.	8fL]	.	8aL]	.
8GJ	.	.	.	8eJ	.	8b	.
4A	.	.	.	4f	.	8cc	.
.	.	.	.	.	.	8ddJ	.
4G	.	[2d	.	4g	.	4b	.
4D	.	.	.	4f	.	[4a	.
=63	=63	=63	=63	=63	=63	=63	=63
4BB	.	4d]	.	2d	.	4a]	.
4GG	.	4B	.	.	.	2g	.
2D	.	2A	.	2d	-o-	.	.
.	.	.	.	.	.	4f#i	.
=64	=64	=64	=64	=64	=64	=64	=64
*	*Xedit	*	*Xedit	*	*Xedit	*	*Xedit
1GGl	-rum.	1Gl	-rum.	1dl	-rum.	1gl	-rum.
==	==	==	==	==	==	==	==
*-	*-	*-	*-	*-	*-	*-	*-
!!!system-decoration: [*]
!!!RDF**kern: j = editorial accidental, optional, paren up
!!!RDF**kern: i = editorial accidental
!!!RDF**kern: l = terminal breve
!!!PTL: Gaspar van Weerbeke: Collected Works. III. The Motet Cycles
!!!ISBN: 3-7751-2653-8
!!!PPR: American Institute of Musicology
!!!PC#: Corpus Mensurabilis Musicae 106/III
!!!PDT: 1998
!!!PED: Lindmayr-Brandl, Andrea
!!!YEC: Copyright 1994, Lindmayr-Brandl, Andrea
!!!YEM: CC-BY-NC 4.0 (https://creativecommons.org/licenses/by-nc/4.0/legalcode)
!!!EED: Mair-Gruber, Roland
!!!EEV: 2021/11/25
